X:76
T:Cathal McConnell's
R:slip jig
M:9/8
L:1/8
K:F#minor
||: ~F3 FEF BcA | ~F3 FEF AFE | ~F3 FEF Bcd | ecA BAF AFE :||:
ecA ABc d2f | ecA ABc BAF | ecA ABc dcB | cBA BAF AFE :||
